X: 1
T: I Care Not For These Ladies  [C]
C: Tune: Thomas Campion 1601
%C: Dance: Kitty Skrobela 1969
B: Barnes v.1 p.55
M: 6/8
L: 1/8
K: C
G | "C"c2d e2f | "C"e3 "G7"d2B | "C"c2c "F"f2e | "G7"d3- d2 :| z |
"F(Dm)"A2B c2d | "G7"B3 G2g | "C"g2a "G7"f2g | "C"e3- e2g | "C"g>fe d2e | "F"f3 z2f |
"Dm"f>gf "Am"e2e | "G"d3 z2e "I"| "G7"d2c d2B | "C"c2c "F"d>ef | "C"g>fe "G7"d2c | "C"c3- c2 |]
